wp-content/plugins/google-analytics-for-wordpress/lite/assets/vue/img/yir-icon-desktop.svg

<svg width="25" height="24" viewBox="0 0 25 24" fill="transparent" xmlns="http://www.w3.org/2000/svg">
    <path d="M21.6607 1.71423H2.58929C1.71155 1.71423 1 2.42578 1 3.30352V16.0178C1 16.8955 1.71155 17.6071 2.58929 17.6071H21.6607C22.5384 17.6071 23.25 16.8955 23.25 16.0178V3.30352C23.25 2.42578 22.5384 1.71423 21.6607 1.71423Z" stroke="#FFFFFF" stroke-width="1.69524" stroke-linejoin="round"/>
    <path d="M14.5088 20.7856L14.1115 17.6071H10.1383L9.74097 20.7856H14.5088Z" fill="#FFFFFF" stroke="#FFFFFF" stroke-width="1.69524" stroke-linecap="round" stroke-linejoin="round"/>
    <path d="M18.6873 22.5H5.56226" stroke="#FFFFFF" stroke-width="2" stroke-linecap="round" stroke-linejoin="round"/>
    <path d="M1 13.6339V16.0178C1.00118 16.439 1.169 16.8425 1.46679 17.1403C1.76459 17.4381 2.16814 17.6059 2.58929 17.6071H21.6607C22.0818 17.6059 22.4854 17.4381 22.7832 17.1403C23.081 16.8425 23.2488 16.439 23.25 16.0178V13.6339H1ZM12.125 16.8125C11.9678 16.8125 11.8142 16.7659 11.6835 16.6786C11.5528 16.5912 11.451 16.4671 11.3908 16.3219C11.3307 16.1767 11.315 16.017 11.3456 15.8628C11.3763 15.7087 11.452 15.5671 11.5631 15.4559C11.6742 15.3448 11.8158 15.2691 11.97 15.2385C12.1241 15.2078 12.2839 15.2235 12.4291 15.2837C12.5743 15.3438 12.6984 15.4457 12.7857 15.5764C12.873 15.707 12.9196 15.8607 12.9196 16.0178C12.9196 16.2286 12.8359 16.4307 12.6869 16.5797C12.5379 16.7288 12.3357 16.8125 12.125 16.8125Z" fill="#FFFFFF"/>
</svg>

<svg width="25" height="24" fill="transparent" xmlns="http://www.w3.org/2000/svg"><path d="M21.66 1.714H2.59A1.59 1.59 0 001 3.304v12.714c0 .877.712 1.59 1.59 1.59h19.07a1.59 1.59 0 001.59-1.59V3.304a1.59 1.59 0 00-1.59-1.59z" stroke="#FFF" stroke-width="1.695" stroke-linejoin="round"/><path d="M14.509 20.786l-.398-3.179h-3.973l-.397 3.179h4.768z" fill="#FFF" stroke="#FFF" stroke-width="1.695" stroke-linecap="round" stroke-linejoin="round"/><path d="M18.687 22.5H5.562" stroke="#FFF" stroke-width="2" stroke-linecap="round" stroke-linejoin="round"/><path d="M1 13.634v2.384a1.594 1.594 0 001.59 1.59h19.07a1.594 1.594 0 001.59-1.59v-2.384H1zm11.125 3.178a.795.795 0 110-1.59.795.795 0 010 1.59z" fill="#FFF"/></svg>
